images/footer__facebook.svg

<svg width="50" height="50" viewBox="0 0 50 50" fill="none" xmlns="http://www.w3.org/2000/svg">
<path d="M25.7956 36.3481V26.1707H29.3496L29.8779 22.1859H25.7956V19.6477C25.7956 18.4979 26.1273 17.7106 27.8355 17.7106H30V14.1579C28.9468 14.0489 27.8882 13.9962 26.829 14.0002C23.6877 14.0002 21.5308 15.8529 21.5308 19.2541V22.1784H18V26.1632H21.5386V36.3481H25.7956Z" fill="white"/>
<rect x="0.5" y="0.5" width="49" height="49" stroke="white"/>
</svg>

<svg width="50" height="50" fill="none" xmlns="http://www.w3.org/2000/svg"><path d="M25.796 36.348V26.171h3.554l.528-3.985h-4.082v-2.538c0-1.15.331-1.937 2.04-1.937H30v-3.553A29.714 29.714 0 0026.829 14c-3.141 0-5.298 1.853-5.298 5.254v2.924H18v3.985h3.539v10.185h4.257z" fill="#fff"/><path stroke="#fff" d="M.5.5h49v49H.5z"/></svg>
